app/assets/images/heroicons/mini/signal.svg

<svg width="20" height="20" viewBox="0 0 20 20" fill="none" xmlns="http://www.w3.org/2000/svg">
<path d="M16.364 3.63605C16.0711 3.34316 15.5962 3.34316 15.3033 3.63605C15.0104 3.92895 15.0104 4.40382 15.3033 4.69671C18.2322 7.62564 18.2322 12.3744 15.3033 15.3033C15.0104 15.5962 15.0104 16.0711 15.3033 16.364C15.5962 16.6569 16.0711 16.6569 16.364 16.364C19.8787 12.8493 19.8787 7.15077 16.364 3.63605Z" fill="#0F172A"/>
<path d="M4.6967 4.69671C4.98959 4.40382 4.98959 3.92895 4.6967 3.63605C4.40381 3.34316 3.92893 3.34316 3.63604 3.63605C0.12132 7.15077 0.12132 12.8493 3.63604 16.364C3.92893 16.6569 4.40381 16.6569 4.6967 16.364C4.98959 16.0711 4.98959 15.5962 4.6967 15.3033C1.76777 12.3744 1.76777 7.62564 4.6967 4.69671Z" fill="#0F172A"/>
<path d="M12.4749 6.46448C12.7678 6.17159 13.2426 6.17159 13.5355 6.46448C15.4882 8.41711 15.4882 11.5829 13.5355 13.5356C13.2426 13.8284 12.7678 13.8284 12.4749 13.5356C12.182 13.2427 12.182 12.7678 12.4749 12.4749C13.8417 11.1081 13.8417 8.89198 12.4749 7.52515C12.182 7.23225 12.182 6.75738 12.4749 6.46448Z" fill="#0F172A"/>
<path d="M7.52513 6.46448C7.81802 6.75738 7.81802 7.23225 7.52513 7.52515C6.15829 8.89198 6.15829 11.1081 7.52513 12.4749C7.81802 12.7678 7.81802 13.2427 7.52513 13.5356C7.23223 13.8284 6.75736 13.8284 6.46447 13.5356C4.51184 11.5829 4.51184 8.41711 6.46447 6.46448C6.75736 6.17159 7.23223 6.17159 7.52513 6.46448Z" fill="#0F172A"/>
<path d="M11 10C11 10.5523 10.5523 11 10 11C9.44772 11 9 10.5523 9 10C9 9.44771 9.44772 9 10 9C10.5523 9 11 9.44771 11 10Z" fill="#0F172A"/>
</svg>

<svg xmlns="http://www.w3.org/2000/svg" viewBox="0 0 20 20" fill="currentColor" aria-hidden="true" data-slot="icon">
  <path d="M16.364 3.636a.75.75 0 0 0-1.06 1.06 7.5 7.5 0 0 1 0 10.607.75.75 0 0 0 1.06 1.061 9 9 0 0 0 0-12.728ZM4.697 4.697a.75.75 0 0 0-1.061-1.061 9 9 0 0 0 0 12.728.75.75 0 1 0 1.06-1.06 7.5 7.5 0 0 1 0-10.607Z"/>
  <path d="M12.475 6.464a.75.75 0 0 1 1.06 0 5 5 0 0 1 0 7.072.75.75 0 0 1-1.06-1.061 3.5 3.5 0 0 0 0-4.95.75.75 0 0 1 0-1.06ZM7.525 6.464a.75.75 0 0 1 0 1.061 3.5 3.5 0 0 0 0 4.95.75.75 0 0 1-1.06 1.06 5 5 0 0 1 0-7.07.75.75 0 0 1 1.06 0ZM11 10a1 1 0 1 1-2 0 1 1 0 0 1 2 0Z"/>
</svg>
